X: 6657
T: Ceilidh House, The
R: jig
M: 6/8
K: Dmajor
dAF|D2 A A>FE|D>FA A>FE|D2 A AF/G/A|d3 def|
g2 e f2 d|d>cB A2 A|BGB dcB|A3 AFE|
D2 A A>FE|DFA A>FE|DAA AFA|d3 dd/e/f|
gee fdd|dcB A2 d|B2 d c>de|d3||
dAd|f2 d A2 d|g2 e c2 e|ded dcB|A3 A2 =c|
B2 G d2 B|A2 d F2 d|cde efg|a3 bag|
f2 d AB/c/d|g2 e cde|d2 d dcB|A3 FGA|
B2 G DGB|A2 F d2 A|cc/B/A G[AF][cE]|[d3D3]||

